frontend/public/svg/hand gestures/2-double-tap.svg

<svg width="112" height="170" viewBox="0 0 112 170" fill="none" xmlns="http://www.w3.org/2000/svg">
<g clip-path="url(#clip0)">
<path d="M109.448 91.9388C107.538 86.7609 102.901 83.9807 97.3403 84.683C95.6785 84.9711 94.0613 85.4758 92.5294 86.1827C91.8842 86.4452 91.2213 86.715 90.544 86.9611C87.9252 81.165 82.765 78.5849 75.1765 79.2852C75.1765 79.0372 75.1797 78.8068 75.1817 78.5895C75.187 77.9673 75.1909 77.4534 75.1719 76.9408C75.0662 74.1868 74.9678 71.4328 74.8765 68.6788C74.6415 61.9054 74.4 54.9016 73.999 48.0205C73.5888 40.9754 71.7819 35.2082 68.4766 30.3887C65.831 26.5308 61.6093 25.4045 57.4606 27.449C55.2222 28.4742 53.4094 30.245 52.332 32.4588C51.4905 34.2493 50.7568 36.1258 50.0499 37.9406C49.8149 38.5405 49.5809 39.1403 49.342 39.7402C49.1936 39.5085 49.0464 39.2742 48.8974 39.038C48.3019 38.0439 47.6443 37.0883 46.9284 36.177C44.494 33.2097 41.4223 32.5277 37.798 34.1496C36.4579 34.7234 35.2646 35.5922 34.3068 36.6912C33.3489 37.7901 32.6514 39.0911 32.266 40.497C31.8071 42.0263 31.5207 43.6021 31.4125 45.1951C31.3429 46.2797 31.2699 47.3651 31.1933 48.4511C30.9019 52.6759 30.6025 57.0445 30.6078 61.3475C30.6209 70.1917 30.7576 78.8396 30.9014 87.9949C30.956 91.394 31.0076 94.8122 31.0561 98.2508L30.9209 98.1287C30.5213 97.7546 30.1004 97.4041 29.6602 97.0786C22.703 92.156 15.3343 90.5296 7.76414 92.2348C3.84976 93.1182 1.54532 95.7613 0.915235 100.091C0.115159 105.598 3.31422 109.032 6.1903 111.408C11.6192 115.891 16.0587 121.45 19.2283 127.737C23.9972 137.017 29.1298 145.983 33.0678 152.76C34.4631 154.975 36.2457 156.922 38.3303 158.507C42.5122 161.799 47.2075 164.381 52.2279 166.15C56.8553 167.89 61.7583 168.78 66.7018 168.779C72.5295 168.71 78.3013 167.63 83.7587 165.585C87.7978 164.073 91.539 161.861 94.8108 159.051C100.734 154.141 104.861 147.434 107.428 138.544C110.856 126.734 112.312 114.439 111.738 102.155C111.496 98.6531 110.724 95.2087 109.448 91.9388ZM37.3163 106.335C37.1943 99.1578 37.0386 91.5798 36.8122 81.7623C36.7682 79.8773 36.6966 77.9916 36.6244 76.106C36.4846 72.4462 36.3403 68.6618 36.4177 64.9481C36.5569 58.2128 36.9922 51.534 37.5029 44.1272C37.7398 40.6965 38.3519 39.8058 41.547 38.4308C43.6584 39.8248 44.9655 42.1011 45.5411 45.3821C46.41 50.3352 47.0209 55.3301 47.372 60.3466C47.8071 66.6074 48.1374 72.9824 48.4577 79.1474C48.6435 82.7356 48.8298 86.3238 49.0366 89.9114C49.1081 91.144 49.3883 91.9552 49.8707 92.3227C50.6524 92.9193 51.948 93.558 53.0159 93.39C53.8691 93.2587 54.8761 91.8705 54.9391 90.995C55.1619 88.2895 55.1665 85.571 54.9529 82.8649C53.7957 69.8957 54.7062 57.118 55.9191 42.9595C56.1959 40.956 56.7418 38.999 57.5426 37.1417C57.6851 36.7643 57.8269 36.3883 57.9634 36.0135C58.3688 35.1472 58.9656 34.3841 59.7087 33.7819C60.541 33.0331 61.2306 32.7155 61.7557 32.8336C62.246 32.9452 62.6824 33.4603 63.0546 34.3635L63.1615 34.626C64.4296 37.7049 65.7404 40.8875 66.2634 44.1272C67.1166 49.3151 67.5702 54.5609 67.6187 59.8183C67.6562 66.9251 67.4264 74.1547 67.2039 81.1493C67.1376 83.2377 67.0733 85.3255 67.011 87.4127C66.9696 88.3 66.883 89.1841 66.7524 90.063C66.6198 90.9563 66.5325 91.8554 66.4898 92.7572C66.4452 94.2373 66.8226 95.2979 67.6122 95.9077C68.4017 96.5174 69.5385 96.6257 70.9733 96.2102C71.9145 95.97 72.7611 95.4522 73.403 94.723C74.0449 93.9938 74.4512 93.088 74.5694 92.1239C74.7413 91.0901 74.8319 90.0321 74.9251 89.0096C74.9809 88.3683 75.0373 87.7277 75.1128 87.0898C75.3602 85.0052 76.4708 84.0562 78.5947 84.1113C80.1016 84.1842 81.5482 84.725 82.7342 85.6583C83.9195 86.591 84.7853 87.8701 85.2106 89.318C85.4895 90.4981 85.6647 91.7005 85.7356 92.9108C85.7645 93.2475 85.794 93.5829 85.8275 93.917C85.8544 94.2826 85.8577 94.6495 85.8367 95.0157C85.7658 95.6865 85.8354 96.3651 86.0415 97.0077C86.3657 97.8045 87.2032 99.2287 88.2855 99.5123C89.0377 99.7092 90.0931 99.3383 91.4267 98.4136C91.8474 98.0598 92.1697 97.6036 92.3633 97.0891C92.4769 96.8364 92.6088 96.5922 92.7571 96.3586C93.0138 95.9792 93.2625 95.5913 93.5106 95.2028C94.1249 94.171 94.8357 93.1996 95.6332 92.3024C96.9045 90.97 98.3478 90.338 99.6848 90.5185C101.022 90.699 102.222 91.6769 103.08 93.2751C105.164 96.9644 106.173 101.163 105.994 105.396C105.62 111.996 104.995 118.777 104.083 126.128C103.217 132.434 101.259 138.541 98.2953 144.174C94.6992 151.297 88.6786 156.119 79.8896 158.91C67.2157 162.937 54.7663 160.733 42.886 152.359C41.7023 151.578 40.6682 150.59 39.8321 149.445C37.7859 146.512 35.893 143.474 34.1613 140.346C31.5261 135.457 28.8688 130.212 26.2612 124.758C22.2575 116.387 17.1439 109.794 10.6212 104.609C9.51643 103.726 8.58587 102.644 7.87762 101.42C7.67842 101.11 7.54794 100.76 7.49464 100.395C7.44135 100.029 7.46662 99.6573 7.56868 99.3029C7.72876 98.9006 7.97101 98.5356 8.28015 98.2324C8.58922 97.9285 8.95828 97.6936 9.36363 97.5406C10.651 96.9657 12.046 96.6716 13.4558 96.6789C14.2211 96.6815 14.9845 96.7556 15.736 96.9C21.4685 97.9718 25.3106 100.105 27.827 103.615C28.7104 105.006 29.3919 106.514 29.8512 108.097C29.9916 108.504 30.1313 108.91 30.2771 109.31C30.8382 110.849 31.6233 112.275 33.553 112.287C35.2732 112.277 36.4914 111.246 36.9456 109.399C37.2003 108.398 37.3253 107.368 37.3177 106.335H37.3163Z" fill="black"/>
<path d="M86.8114 71.4473C88.8296 71.1027 90.7514 70.3321 92.4493 69.1875C99.2831 64.6187 104.329 57.8906 107.873 48.6192C109.561 44.3204 110.352 39.7217 110.196 35.106C110.04 30.4903 108.941 25.9554 106.968 21.7801C102.909 13.0069 95.4291 5.98808 86.9604 3.00371C81.5725 1.10559 75.842 0.470881 68.9295 1.00514C56.4714 1.96864 48.3369 5.7715 42.5867 13.3272L42.2105 13.2583C41.8167 13.1841 41.4446 13.1158 41.0718 13.0705C40.0788 12.9498 39.0608 12.7739 38.075 12.6026C35.8708 12.1219 33.6139 11.9248 31.3598 12.0165C17.2367 13.2432 7.27958 21.5853 3.32053 35.5042C0.706999 44.693 0.974759 54.2499 4.11468 63.9145C5.65062 68.7313 8.71933 72.9142 12.8531 75.825C15.1431 77.4659 17.3254 78.2751 19.4729 78.2751C20.0964 78.2745 20.7182 78.2069 21.3272 78.073C21.7925 77.9378 22.2172 77.6903 22.5642 77.3523C22.9113 77.0143 23.1699 76.5956 23.3171 76.1342C23.4739 75.2153 22.578 74.0916 22.1848 73.6506C21.7391 73.245 21.1968 72.9601 20.6097 72.8236C20.4869 72.7836 20.365 72.7442 20.2469 72.7022C17.7167 71.8043 15.5731 70.1484 13.2976 67.3333C10.5607 63.9486 9.65684 59.8694 8.96572 55.9786C6.98948 44.857 8.54507 35.6322 13.7216 27.7759C19.4915 19.017 31.5626 15.1512 41.2035 18.975C44.6696 20.3494 45.5492 20.0979 47.4788 17.1727C49.6759 13.6802 52.9235 10.9741 56.7551 9.44296C65.8827 5.90993 74.3449 5.20633 82.6148 7.2928C90.1679 9.19618 96.7667 14.4777 100.72 21.7801C104.457 28.6815 105.249 36.5635 102.896 43.4052C99.7727 52.4843 94.9395 59.179 88.1221 63.8738C86.6703 64.7933 85.4016 65.9741 84.381 67.3563C84.0541 67.7862 83.8612 68.3027 83.827 68.8416C83.7922 69.3798 83.9183 69.9173 84.188 70.3847C84.4683 70.8047 84.8686 71.1302 85.3359 71.3193C85.8039 71.509 86.3178 71.5536 86.8114 71.4473Z" fill="black"/>
<path d="M81.648 46.108C81.1774 47.002 80.6897 47.9267 80.2874 48.8764C79.9809 49.5118 79.9093 50.2354 80.0865 50.9183C80.2631 51.6012 80.6766 52.1992 81.2535 52.6058C82.5439 53.5739 84.0416 53.4367 85.3648 52.2264C86.136 51.5218 86.7897 50.6987 87.3017 49.7882C93.5861 38.4742 90.3681 26.5438 79.1027 19.3943C70.6149 14.0078 54.663 16.0353 47.9047 23.3167C44.3322 22.5875 39.6718 21.9489 34.96 23.251C21.039 27.0978 13.8441 39.9955 17.0549 55.346C17.3775 56.793 17.8762 58.1951 18.5396 59.5209C19.2872 61.0679 20.3024 61.8463 21.5672 61.8463C21.9692 61.8414 22.3681 61.7729 22.7488 61.6435L22.8799 61.6009L22.9456 61.4787C23.7922 59.8523 23.587 58.1919 23.3888 56.5851C23.3271 56.0857 23.2632 55.5685 23.2337 55.0651C23.1943 54.3792 23.1473 53.692 23.1026 53.0042C22.867 50.4758 22.815 47.9337 22.9475 45.3979C23.4338 39.1797 26.5681 34.1745 32.2638 30.5292C37.0203 27.4831 42.009 26.8694 47.091 28.7072C49.8653 29.7107 50.4211 29.1548 52.2641 27.3164L52.358 27.2232C54.2614 25.3264 55.9845 24.1266 57.6293 23.5576C60.5739 22.5671 63.6354 21.9658 66.736 21.769C73.6702 21.2801 81.6171 26.7749 83.7942 33.5372C84.9027 36.9803 84.4623 40.5127 82.4067 44.6529C82.1553 45.1412 81.9 45.625 81.648 46.108Z" fill="black"/>
</g>
<defs>
<clipPath id="clip0">
<rect width="111.577" height="168.679" fill="white" transform="translate(0.327759 0.540527)"/>
</clipPath>
</defs>
</svg>

<svg xmlns="http://www.w3.org/2000/svg" width="112" height="170" fill="none" viewBox="0 0 112 170"><g fill="#000" clip-path="url(#a)"><path d="M109.448 91.939c-1.91-5.178-6.547-7.958-12.108-7.256a19.4 19.4 0 0 0-4.81 1.5c-.646.262-1.309.532-1.986.778-2.619-5.796-7.779-8.376-15.367-7.676q.001-.37.005-.695a36 36 0 0 0-.01-1.65q-.158-4.13-.296-8.261C74.642 61.905 74.4 54.902 74 48.02c-.41-7.045-2.217-12.812-5.522-17.631-2.646-3.858-6.868-4.985-11.016-2.94a10.62 10.62 0 0 0-5.129 5.01c-.842 1.79-1.575 3.667-2.282 5.482q-.352.9-.708 1.8l-.445-.703a28 28 0 0 0-1.969-2.861c-2.434-2.967-5.506-3.65-9.13-2.027a9.69 9.69 0 0 0-5.532 6.347 21.4 21.4 0 0 0-.853 4.698 515 515 0 0 1-.22 3.256c-.291 4.225-.59 8.593-.585 12.896.013 8.845.15 17.493.293 26.648q.083 5.098.155 10.256l-.135-.122q-.6-.562-1.26-1.05c-6.958-4.923-14.327-6.55-21.897-4.844-3.914.883-6.219 3.526-6.849 7.856-.8 5.507 2.4 8.941 5.275 11.317a50.9 50.9 0 0 1 13.038 16.329c4.77 9.28 9.902 18.246 13.84 25.023a21.9 21.9 0 0 0 5.262 5.747 48.6 48.6 0 0 0 13.898 7.643 41.1 41.1 0 0 0 14.474 2.629 50.3 50.3 0 0 0 17.057-3.194 36.7 36.7 0 0 0 11.052-6.534c5.923-4.91 10.05-11.617 12.617-20.507a111.8 111.8 0 0 0 4.31-36.389 34.7 34.7 0 0 0-2.29-10.216m-72.132 14.396c-.122-7.177-.277-14.755-.504-24.573-.044-1.885-.115-3.77-.188-5.656-.14-3.66-.284-7.444-.206-11.158.139-6.735.574-13.414 1.085-20.82.237-3.431.849-4.322 4.044-5.697 2.111 1.394 3.419 3.67 3.994 6.951a145 145 0 0 1 1.831 14.965c.435 6.26.765 12.635 1.086 18.8.186 3.589.372 7.177.579 10.764.071 1.233.351 2.044.834 2.412.781.596 2.077 1.235 3.145 1.067.853-.131 1.86-1.52 1.923-2.395a50.6 50.6 0 0 0 .014-8.13c-1.157-12.97-.247-25.747.966-39.905a22.5 22.5 0 0 1 1.624-5.818q.215-.567.42-1.129a6.3 6.3 0 0 1 1.746-2.231c.832-.749 1.522-1.066 2.047-.948.49.111.926.626 1.299 1.53l.106.262c1.269 3.079 2.58 6.262 3.102 9.501a102.5 102.5 0 0 1 1.356 15.691c.037 7.107-.193 14.337-.415 21.331q-.099 3.134-.193 6.264a26 26 0 0 1-.259 2.65q-.198 1.34-.262 2.694c-.045 1.48.333 2.54 1.122 3.15s1.927.719 3.361.303a4.83 4.83 0 0 0 3.596-4.086c.172-1.034.263-2.092.356-3.114.056-.642.112-1.282.188-1.92.247-2.085 1.358-3.034 3.482-2.979a7.26 7.26 0 0 1 6.616 5.207c.279 1.18.454 2.383.525 3.593q.042.505.091 1.006.04.55.01 1.099c-.071.67-.002 1.35.204 1.992.325.797 1.162 2.22 2.245 2.504.752.197 1.807-.174 3.14-1.098.421-.354.744-.81.937-1.325q.172-.38.394-.73c.257-.38.505-.768.754-1.156a19 19 0 0 1 2.122-2.9c1.272-1.333 2.715-1.965 4.052-1.784 1.337.18 2.537 1.158 3.395 2.756a22.7 22.7 0 0 1 2.914 12.121c-.374 6.6-.999 13.381-1.911 20.732a54.8 54.8 0 0 1-5.788 18.046c-3.596 7.123-9.616 11.945-18.405 14.736-12.674 4.027-25.124 1.823-37.004-6.551a11.9 11.9 0 0 1-3.054-2.914 104 104 0 0 1-5.67-9.099 363 363 0 0 1-7.9-15.588c-4.004-8.371-9.118-14.964-15.64-20.149a11.4 11.4 0 0 1-2.744-3.189 2.6 2.6 0 0 1-.31-2.117 3.1 3.1 0 0 1 1.796-1.762 9.9 9.9 0 0 1 4.092-.862c.765.002 1.529.077 2.28.221 5.732 1.072 9.575 3.205 12.091 6.715a17.4 17.4 0 0 1 2.024 4.482q.209.612.426 1.213c.561 1.539 1.346 2.965 3.276 2.977 1.72-.01 2.938-1.041 3.393-2.888a12 12 0 0 0 .372-3.064z"/><path d="M86.811 71.447a14.4 14.4 0 0 0 5.638-2.26c6.834-4.568 11.88-11.296 15.424-20.568a33.84 33.84 0 0 0-.905-26.839C102.909 13.007 95.429 5.988 86.96 3.004 81.573 1.106 75.842.47 68.93 1.005c-12.46.965-20.593 4.767-26.343 12.322l-.377-.069a18 18 0 0 0-1.138-.187 60 60 0 0 1-2.997-.468 26.5 26.5 0 0 0-6.715-.586C17.237 13.243 7.28 21.585 3.32 35.504.708 44.693.976 54.25 4.116 63.914a23.18 23.18 0 0 0 8.738 11.911c2.29 1.64 4.472 2.45 6.62 2.45a8.6 8.6 0 0 0 1.854-.202 2.95 2.95 0 0 0 1.99-1.939c.157-.919-.739-2.042-1.132-2.483a3.5 3.5 0 0 0-1.575-.827q-.185-.06-.363-.122c-2.53-.898-4.674-2.554-6.95-5.369-2.736-3.384-3.64-7.464-4.331-11.354-1.977-11.122-.42-20.347 4.756-28.203 5.77-8.759 17.84-12.625 27.481-8.801 3.467 1.374 4.346 1.123 6.276-1.802a19.5 19.5 0 0 1 9.276-7.73c9.128-3.533 17.59-4.237 25.86-2.15 7.553 1.903 14.152 7.185 18.105 14.487 3.737 6.901 4.529 14.783 2.176 21.625-3.123 9.08-7.957 15.774-14.774 20.469-1.452.92-2.72 2.1-3.741 3.482a2.74 2.74 0 0 0-.193 3.029 2.51 2.51 0 0 0 2.623 1.062"/><path d="M81.648 46.108c-.47.894-.958 1.819-1.36 2.768a2.98 2.98 0 0 0 .966 3.73c1.29.968 2.788.83 4.11-.38a9.8 9.8 0 0 0 1.938-2.438c6.284-11.314 3.066-23.244-8.2-30.394-8.487-5.386-24.439-3.359-31.197 3.923-3.573-.73-8.233-1.368-12.945-.066-13.921 3.847-21.116 16.745-17.905 32.095a18 18 0 0 0 1.485 4.175c.747 1.547 1.762 2.325 3.027 2.325a3.8 3.8 0 0 0 1.182-.202l.13-.043.067-.122c.846-1.627.641-3.287.443-4.894a24 24 0 0 1-.155-1.52c-.04-.686-.087-1.373-.131-2.06a52.5 52.5 0 0 1-.155-7.607c.486-6.218 3.62-11.224 9.316-14.869 4.756-3.046 9.745-3.66 14.827-1.822 2.774 1.004 3.33.448 5.173-1.39l.094-.094c1.903-1.897 3.627-3.096 5.271-3.665a35.7 35.7 0 0 1 9.107-1.789c6.934-.489 14.881 5.006 17.058 11.768 1.109 3.443.668 6.976-1.387 11.116q-.38.731-.759 1.455"/></g><defs><clipPath id="a"><path fill="#fff" d="M.328.54h111.577v168.68H.328z"/></clipPath></defs></svg>
